X: 29
T: War song
N: Derived from ojibwa29.krn
C: Chippewa Songs ~ 1910
O: Red Wing, Minnesota, U.S.A
N: Chippewa Music by Frances Densmore, 1910
Z: transcribed to **kern format by Paul von Hippel and Daniel T. Shanahan
L: 1/8
M: 2/4
Q: 1/4=108
K: Bb clef=bass
%%linebreak <none>
D2D D | 
D4 | 
C CC2 | 
D2B, B, | 
B,4 | 
G, B,B,2 | 
D2B, B, | 
B,4 | 
B, G, G, F, | 
G,2G, G, | 
G,4 | 
F, F,F,2 | 
G,2D, D, | 
D,4 | 
C, C,C,2 | 
D,2B,, B,, | 
B,,4 | 
G,, G,,G,,2 | 
B,,2G,, G,, | 
B,,4 | 
G,, G,,G,,2 | 
G,,3G,, | 
G,,4- | 
G,,4 |]  



